X:107
T:Maidens Prayer
C:Brooks
N:Tabledited by Kim Davis and Mike Stangeland
L:1/8
Q:1/4=128
M:4/4
K:A
z8 |: "A"A,4 zC/E3/2[AA] | "A7"{B}(3ccc (3ccc (3ccc [cA][=cG] | [B3=G3][cA] [B2G2] [A2D2] | 
|1 [d8F8] | "E"[d4F4] [d3F3][c=F] | "E7"[dF][c=F] [B6D6] | [e4G4] [eG][^d=G] [=d2F2] | 
"A"[c3A3]B AF EC :|2 [d6F6] AF | "A"EC EF "D"A2 zF | "A"EC EF "D"A2 zF | "E"E2 [d2F2] [c2E2] [B2D2] | 
"A"[c3A3]F ED CB, |: "A"(3A,A,A, (3A,A,A, A,C/E3/2[AA] | "A7"{B}(3c[cA][cA] (3[cA][cA][cA] (3[cA][cA][cA] [cA][=cG] | 
(3[B=G][BG][BG] (3[BG][BG][cA] [B2G2] [A2D2] |1 (3[dF][dF]"D"[dF] (3[dF][dF][dF] (3[dF][dF][dF] (3[dF][dF][dF] | 
"E"(3[dF][dF][dF] (3[dF][dF][dF] (3[dF][dF][dF] [dF][c=F] | "E7"[dF][c=F] (3[BD][BD][BD] (3[BD][BD][BD] (3[BD][BD][BD] | 
(3[eG][eG][eG] (3[eG][eG][eG] [eG][^d=G] [=d2F2] | "A"(3[cA][cA][cA] [cA]B AF EC :|2 (3[dF][dF]"E"[dF] (3[dF][dF][dF] (3[dF][dF][dF] AF | 
"A"EC EF "D"(3AAA zF | "A"EC EF "D"(3AAA zF | "E"E2 [d2F2] [c2E2] [B2D2] | "A"(3[cA][cA][cA] (3[cA][cA]F ED CB, | 
"A"(3A,A,A, A,3/2A,/ zC/E3/2[AA] |: "A7"{B}c4 z/z3/2 [cA][=cG] | (3[B=G][BG][BG] [BG][cA] [B2G2] [A2D2] | 
|1 [d8F8] | "E"(3[dF][dF][dF] [d2F2] [d3F3][c=F] | "E7"[dF][c=F] [B2D2] [B4D4] | 
(3[eG][eG][eG] [e2G2] [eG][^d=G] [=d2F2] | "A"[c3A3]B AF EC | "A"(3A,=G,A, (3CA,C (3ECE [AA][AA] :|2 [d6F6] af | 
"A"[ae][ac] [ae]f (3[ac][ac][ac] zf | "A"[ae][ac] [ae]f (3[ac][ac][ac] zf | "E"e2 [d'2f2] [c'2e2] [b2d2] | 
(3"A"[cA][cA][cA] (3[cA][cA][cA] (3[cA][cA][cA] (3[cA][cA][cA] | [c8A8] | 


